X:1
T:Miss McCleod's Reel
R:Reel
M:C|
K:A
cB|\
"A"A2fA e2cB|AccB cecB|A2fAe2cA|"E"BcBA GBEB|
"A"A2fA e2cB|AccB ceea|"D"f3f fece|afec "E"B2:|
|:cB|\
"A"Aaag fefa|eccB cecB|Aaag fefa|eccA "E"B2cB|
"A"Aaag fefa|eccB ceea|"D"f3f fece|afec "E"B:|
